static/fa/svgs/solid/train.svg

<svg xmlns="http://www.w3.org/2000/svg" viewBox="0 0 448 512"><!--! Font Awesome Free 6.1.1 by @fontawesome - https://fontawesome.com License - https://fontawesome.com/license/free (Icons: CC BY 4.0, Fonts: SIL OFL 1.1, Code: MIT License) Copyright 2022 Fonticons, Inc.--><path d="M352 0c53 0 96 42.98 96 96v256c0 47.1-35.2 87.7-81.1 94.9l46 46c7 7 2 19.1-8.8 19.1h-38.8c-8.5 0-16.7-3.4-22.7-9.4L288 448H160l-54.6 54.6c-6.03 6-14.17 9.4-22.65 9.4H43.04c-9.98 0-14.98-12.1-7.92-19.1l46.02-46C35.18 439.7 0 399.1 0 352V96C0 42.98 42.98 0 96 0h256zM64 192c0 17.7 14.33 32 32 32h256c17.7 0 32-14.3 32-32V96c0-17.67-14.3-32-32-32H96c-17.67 0-32 14.33-32 32v96zm160 192c26.5 0 48-21.5 48-48s-21.5-48-48-48-48 21.5-48 48 21.5 48 48 48z"/></svg>

<svg xmlns="http://www.w3.org/2000/svg" viewBox="0 0 448 512"><!--! Font Awesome Free 6.1.1 by @fontawesome - https://fontawesome.com License - https://fontawesome.com/license/free (Icons: CC BY 4.0, Fonts: SIL OFL 1.1, Code: MIT License) Copyright 2022 Fonticons, Inc. --><path d="M352 0C405 0 448 42.98 448 96V352C448 399.1 412.8 439.7 366.9 446.9L412.9 492.9C419.9 499.9 414.9 512 404.1 512H365.3C356.8 512 348.6 508.6 342.6 502.6L288 448H160L105.4 502.6C99.37 508.6 91.23 512 82.75 512H43.04C33.06 512 28.06 499.9 35.12 492.9L81.14 446.9C35.18 439.7 0 399.1 0 352V96C0 42.98 42.98 0 96 0H352zM64 192C64 209.7 78.33 224 96 224H352C369.7 224 384 209.7 384 192V96C384 78.33 369.7 64 352 64H96C78.33 64 64 78.33 64 96V192zM224 384C250.5 384 272 362.5 272 336C272 309.5 250.5 288 224 288C197.5 288 176 309.5 176 336C176 362.5 197.5 384 224 384z"/></svg>
